!!!!SEGMENT: pl-lzu--m-15111--001-029_noskowski-zygmunt--spiewnik-dla-dzieci-op-34-29-sobotka.krn
!!!cenid: 18xx:4726
!!!COM: Noskowski, Zygmunt
!!!COM-rismID: pe106604
!!!CDT: 1846/05/02-1909/07/23
!!!CNT: Polish
!!!GTL: Śpiewnik dla dzieci, op. 34
!!!OTL: 29. Sobótka
!!!OMV: 029
!!!PDT: 1890
!!!AGN: Secular; Song; Children
!!!YEC: Copyright 2022 Narodowy Instytut Fryderyka Chopina (https://polishscores.org)
!!!YEM: License CC-BY-4.0 (https://creativecommons.org/licenses/by/4.0)
!!!SMS-siglum: PL-LŹu
!!!SMS-shelfmark: M 15111
!!!SMS-variant:
!!!SMS-altvar:
!!!SMS-shelfwork: 001-029 G
!!!NIFC-rismSourceID: 1001234040
!!!NIFC-rismChildID: 1001234040
!!!NIFC-islandoraID: pl-lzu:5455
!!!URL-pdf-islandora: https://repozytorium.nifc.pl/islandora/object/pl-lzu%3A5455/datastream/PDF/view
!!!URL-scan: https://polish.musicsources.pl/pl/lokalizacje/galeria/druki-muzyczne/23228/37 @EN{Scan on Polish Music Sources Website} @PL{Skany w portalu Dziedzictwo Muzyki Polskiej w otwartym dostępie}
!!!IIIF:
!!!ONB-nifc:
!!!AIN: 1 piano
!!!key: F
!!!OMD: Allegro moderato.
**kern	**kern	**dynam	**kern	**text	**text	**text	**text
*part2	*part2	*part2	*part1	*part1	*part1	*part1	*part1
*staff3	*staff2	*staff2/3	*staff1	*staff1	*staff1	*staff1	*staff1
*I"[Piano]	*I"[Piano]	*	*I"[Voice]	*	*	*	*
*I'pf	*I'pf	*	*	*	*	*	*
*Ipiano	*Ipiano	*	*	*	*	*	*
*ICklav	*ICklav	*	*	*	*	*	*
*IGacmp	*IGacmp	*	*	*	*	*	*
*>[A,A,A,A]	*>[A,A,A,A]	*>[A,A,A,A]	*>[A,A,A,A]	*>[A,A,A,A]	*>[A,A,A,A]	*>[A,A,A,A]	*>[A,A,A,A]
*>A	*>A	*>A	*>A	*>A	*>A	*>A	*>A
*clefF4	*clefG2	*	*clefG2	*	*	*	*
*k[b-]	*k[b-]	*	*k[b-]	*	*	*	*
*F:	*F:	*	*F:	*	*	*	*
*M2/4	*M2/4	*	*M2/4	*	*	*	*
=1	=1	=1	=1	=1	=1	=1	=1
!	!LO:TX:a:i:t=Umiarkowanie szybko.	!LO:DY:rj	!	!	!	!	!
8FF\L	(8a/L	mf	2r	.	.	.	.
8AJ 8C\	16g/L	.	.	.	.	.	.
.	16f/JJ	.	.	.	.	.	.
8FF\L	16e/LL	.	.	.	.	.	.
.	16g/	.	.	.	.	.	.
8GJ 8C\	16b-/	.	.	.	.	.	.
.	16dd/JJ)	.	.	.	.	.	.
=2	=2	=2	=2	=2	=2	=2	=2
8FF\L	8cc'\L	.	2r	.	.	.	.
8AJ 8C\	8ff'\J	.	.	.	.	.	.
8FF\L	4b-^\	.	.	.	.	.	.
8B-J 8D\	.	.	.	.	.	.	.
=3	=3	=3	=3	=3	=3	=3	=3
8FF\L	(8dd\L	.	2r	.	.	.	.
8AJ 8C\	16cc\L	.	.	.	.	.	.
.	16a\JJ	.	.	.	.	.	.
8FF\L	16b-/LL	.	.	.	.	.	.
.	16g/	.	.	.	.	.	.
8B-J 8C\	16e/	.	.	.	.	.	.
.	16c/JJ)	.	.	.	.	.	.
=4	=4	=4	=4	=4	=4	=4	=4
8FF\L	8f/L	.	2r	.	.	.	.
8AJ 8C\	8a/J	.	.	.	.	.	.
8FF\L	4cc^\	.	.	.	.	.	.
8GJ 8C\	.	.	.	.	.	.	.
!!LO:LB:g=original
=5	=5	=5	=5	=5	=5	=5	=5
*	*	*	*	*v:1	*v:2	*v:3	*v:4
!	!	!LO:DY:rj	!	!	!	!	!
8FF/	4cc\	p	4cc\	Świę-	I-	A	So-
4A 4C\	.	.	.	.	.	.	.
.	4b-\	.	4b-\	-to-	-dzie	ten	-bót-
8G 8C\	.	.	.	.	.	.	.
=6	=6	=6	=6	=6	=6	=6	=6
8FF/	8.a/L	.	8.a/	-jań-	pło-	sta-	-ko,
4A 4C\	.	.	.	.	.	.	.
.	16b-/Jk	.	16b-/	-ski	-mień	-ry	so-
.	8cc\L	.	8cc\	wie-	w gó-	fli-	-bót-
8A 8C\	8dd\J	.	8dd\	-czór	-rę,	-sak	-ko,
=7	=7	=7	=7	=7	=7	=7	=7
8FF/	8g\L	.	8g/	U-	So-	Po-	No-
4G 4C\	8cc\J	.	8cc\	-cie-	-bót-	-pra-	-cy
.	8.b-/L	.	8.b-/	-cha	-ka	-wia	świę-
8G 8C\	.	.	.	.	.	.	.
.	16a/Jk	.	16a/	dla	się	o-	-to-
=8	=8	=8	=8	=8	=8	=8	=8
8FF/	8g/	.	8g/	dzia-	pa-	-gni-	-jań-
4A 4C\	4f/	.	4f/	-twy,	-li,	-ska,	-ska,
8A 8C\	8r	.	8r	.	.	.	.
!!LO:PB:g=original
=9	=9	=9	=9	=9	=9	=9	=9
*	*	*	*	*v:1	*v:2	*v:3	*v:4
8C\L	8.e/L	.	8.e/	Za-	Sy-	Pal	Wi-
8GJ 8E\	.	.	.	.	.	.	.
.	16f/Jk	.	16f/	-pa-	-pie	się,	-dać
8BB-\L	8g/L	.	8g/	-li-	i-	pal	cie-
8GJ 8E\	8g/J	.	8g/	-ły	-skry	się,	-bie
=10	=10	=10	=10	=10	=10	=10	=10
8AA\L	8.a/L	.	8.a/	już	szcze-	ty,	od
8AJ 8F\	.	.	.	.	.	.	.
.	16g/Jk	.	16g/	o-	-ro-	so-	War-
8D\L	8f/L	.	8f/	-gni-	-zło-	-bót-	-sza-
8AJ 8F\	8f/J	.	8f/	-ska	-te	-ko,	-wy
=11	=11	=11	=11	=11	=11	=11	=11
8BB-\L	8.g/L	.	8.g/	Te	Po	Bo	Do
8GJ 8F\	.	.	.	.	.	.	.
.	16a/Jk	.	16a/	fli-	tej	War-	sa-
8GG\L	8b-\L	.	8b-/	-sa-	mo-	-sza-	-me-
8B-J 8E\	8b-\J	.	8b-/	-cze	-drej	-wa	-go
=12	=12	=12	=12	=12	=12	=12	=12
8FF/	8cc\	.	8cc\	tra-	fa-	bli-	Gdań-
4c 4A 4E-X\	4a/	.	4a/	-twy.	-li.	-zko.	-ska.
8c 8A 8E-\	8r	.	8r	.	.	.	.
!!LO:LB:g=original
=13	=13	=13	=13	=13	=13	=13	=13
*	*	*	*	*v:1	*v:2	*v:3	*v:4
8D\L	8.b-\L	.	8.b-\	Za-	Sy-	Pal	Wi-
8B-J 8F\	.	.	.	.	.	.	.
.	16cc\Jk	.	16cc\	-pa-	-pie	się,	-dać
8BB-\L	8dd\L	.	8dd\	-li-	i-	pal	cie-
8dJ 8G 8En\	8dd\J	.	8dd\	-ły	-skry	się,	-bie
=14	=14	=14	=14	=14	=14	=14	=14
!	!LO:TX:b:i:t=poco rallent.	!	!LO:TX:a:i:t=trochę zwalniać	!	!	!	!
8AA\L	8cc\L	.	8cc\	już	szcze-	ty,	od
8cJ 8A 8F\	8ff\	.	8ff\	o-	-ro-	so-	War-
8D\L	8cc\	.	8cc\	-gni-	-zło-	-bót-	-sza-
8cJ 8A 8F\	8a\J	.	8a/	-ska	-te	-ko,	-wy
=15	=15	=15	=15	=15	=15	=15	=15
8BB-\L	8g/L	.	8g/	Te	Po	Bo	Do
8dJ 8G 8F\	8b-/J	.	8b-/	fli-	tej	War-	sa-
8C\L	8.dd/L	.	8.dd\	-sa-	mo-	-sza-	-me-
8cJ 8B-\	.	.	.	.	.	.	.
.	16e/Jk	.	16e/	-cze	-drej	-wa	-go
=16	=16	=16	=16	=16	=16	=16	=16
8FF/	8g/	.	8g/	tra-	fa-	bli-	Gdań-
4A 4C\	4f 4c/	.	4f/	-twy.	-li.	-zko.	-ska.
8r	8r	.	8r	.	.	.	.
=:|!	=:|!	=:|!	=:|!	=:|!	=:|!	=:|!	=:|!
*-	*-	*-	*-	*-	*-	*-	*-
!!!system-decoration: p1{p2}
!!!RDF**kern: > = above
!!!RDF**kern: < = below
!!!ENC: Andrzej Gręziak
!!!END: 2025-03-06
!!!ENC: Marta Lawrence
!!!END: 2025-03-22
